material/.icons/material/weather-sunset.svg

<svg xmlns="http://www.w3.org/2000/svg" viewBox="0 0 24 24"><path d="M3 12h4a5 5 0 015-5 5 5 0 015 5h4a1 1 0 011 1 1 1 0 01-1 1H3a1 1 0 01-1-1 1 1 0 011-1m2 4h14a1 1 0 011 1 1 1 0 01-1 1H5a1 1 0 01-1-1 1 1 0 011-1m12 4a1 1 0 011 1 1 1 0 01-1 1H7a1 1 0 01-1-1 1 1 0 011-1h10m-2-8a3 3 0 00-3-3 3 3 0 00-3 3h6M12 2l2.39 3.42C13.65 5.15 12.84 5 12 5c-.84 0-1.65.15-2.39.42L12 2M3.34 7l4.16-.35A7.2 7.2 0 005.94 8.5c-.44.74-.69 1.5-.83 2.29L3.34 7m17.31 0l-1.77 3.79a7.023 7.023 0 00-2.38-4.15l4.15.36z"/></svg>

<?xml version="1.0" encoding="UTF-8"?><!DOCTYPE svg PUBLIC "-//W3C//DTD SVG 1.1//EN" "http://www.w3.org/Graphics/SVG/1.1/DTD/svg11.dtd"><svg xmlns="http://www.w3.org/2000/svg" xmlns:xlink="http://www.w3.org/1999/xlink" version="1.1" id="mdi-weather-sunset" width="24" height="24" viewBox="0 0 24 24"><path d="M3,12H7A5,5 0 0,1 12,7A5,5 0 0,1 17,12H21A1,1 0 0,1 22,13A1,1 0 0,1 21,14H3A1,1 0 0,1 2,13A1,1 0 0,1 3,12M5,16H19A1,1 0 0,1 20,17A1,1 0 0,1 19,18H5A1,1 0 0,1 4,17A1,1 0 0,1 5,16M17,20A1,1 0 0,1 18,21A1,1 0 0,1 17,22H7A1,1 0 0,1 6,21A1,1 0 0,1 7,20H17M15,12A3,3 0 0,0 12,9A3,3 0 0,0 9,12H15M12,2L14.39,5.42C13.65,5.15 12.84,5 12,5C11.16,5 10.35,5.15 9.61,5.42L12,2M3.34,7L7.5,6.65C6.9,7.16 6.36,7.78 5.94,8.5C5.5,9.24 5.25,10 5.11,10.79L3.34,7M20.65,7L18.88,10.79C18.74,10 18.47,9.23 18.05,8.5C17.63,7.78 17.1,7.15 16.5,6.64L20.65,7Z" /></svg>
